X:257
T:Golden Slippers
S:Trad
M:4/4
L:1/8
R:Old Time
K:D
de|:f2f2 fe de|f2f2f2 de|f2f2g2f2|f2e2e2 cd|
|e2 ef ed cd|e2 ef e2 cd|e2g2f2e2|1 d4d2de:|2 d4d2B2|
|:A6 de|f2e2d2c2|B6ef|g2f2e2d2|
|c3Bc2d2|1 e3fe2c2|d3cd2e2| f2d2c2B2:|2 e4g4|f3gf2e2|d6de|
